X: 95
T:Whiskey Before Breakfast
M:4/4
L:1/8
Q:160
C:Traditional
R:Reel
S:https://trillian.mit.edu/~jc/music/abc/mirror/gulfweb.net:34043/~rlwalker/abc/WhiskeyBeforeBreakfastD1.abc
K:D
|:"D"DEFG A2F2|ABAG FEDF|"G"G2BG"D"F2AF|"A"EDEF E2FE|
"D"DEFG A2 F2|ABAG FEDF|"G"G2BG "D"F2AF|"A"EDEF "D"D4:|
|:"D"Ad2 Ad2 ((3ABc|d)cde fedA|"Em"Bdef e2 ef|"A"gfed cBAc|
"D"d2 fd "A"c2 ec|"G"BABd "D"BAFD|"G"G2BG "D"F2AF|"A"EDEF "D"D4:|]

